!! 00000] TT[WS
!!!OTL: Nao wugeng
!!!ARE: Asia, China, Shanxi Lingxian
!! Ethnic Group: Han
!! WII, 123 (1)
!!!SCT: J0588
!!!YEM: Copyright 1995, estate of Helmut Schaffrath.
**kern
*ICvox
*Ivox
*M2/4
*k[b-e-]
*B-:
{4gg
8gg
8bb-
=1
8gg
8ff
8ee-
8cc
=2
4ff
4gg
=3
8ccc
8fff
8eee-
8fff
=4
8eee-
8ccc
8bb-
8ccc}
=5
{4gg
8gg
8bb-
=6
8gg
8ff
8ee-
8cc
=7
4ff
8gg
8bb-
=8
4ff
4gg}
=9
{4ccc
8eee-
8ccc
=10
4.bb-
8ccc
=11
4.fff
8eee-
=12
4ccc
4ccc
=13
4gg
8gg
8bb-
=14
8gg
8ff
8ee-
8cc
=15
8ff
8ff
8gg
8bb-
=16
4ff
4gg}
=17
{8bb-
8gg
4ff
=18
4gg
4r
=19
2ccc
=20
8fff
4ccc
8bb-
=21
4gg
4bb-
=22
4gg
4ff
=23
8ff
4ff
8gg
=24
8dd
8cc
8b-
8b-
=25
4.cc
8ff
=26
2cc}
==
!!!AGN: Xiaodiao. Qingge, Aisu
!!!ONB: ESAC (Essen Associative Code) Database: CHINA
!!!AMT: simple duple
!!!AIN: vox
!!!EED: Helmut Schaffrath
!!!EEV: 1.0
*-
